X:1
T:SORRY
T:SORRY
T:ARRANGEMENT : DEVRİM BULENT IBIS
T:JUSTIN BIBER
C:JUSTIN BIBER
%%score { 1 | 2 }
L:1/8
M:4/4
K:C
V:1 treble nm="Piano" snm="Pno."
V:2 bass 
V:1
 z8 | z8 | z8 | z8 | z8 | z8 | !5!G2 GF G2 FE | D2 E2 z4 | G2 GF G2 FE | D2 E2 z4 | G2 GF G2 FE | %11
 D2 E2 z2 !1!CD | E2 !1!C!4!F E2 EF | E2 D2 z4 | G2 GF G2 FE | D2 E2 z4 | G2 GF G2 FE | D2 E2 z4 | %18
 G2 GF G2 FE | D2 E2 z2 CD | E2 CF E2 EF | E2 D2 z4 | z2 C2 C2 C2 | D2 E2 z4 | z2 C2 C2 C2 | %25
 D4 z4 | z2 C2 C2 C2 | D2 E2 z4 | GE D2 DC C2 | GE D2 DC C2 | z8 | D2 E2 z4 | z8 | D2 E2 z4 | z8 | %35
 D2 E2 z4 | GE D2 DC C2 | GE D2 DC C2 | z8 | z8 | z8 | z8 |] %42
V:2
 z8 | z8 | !2!F,4 !5!C,4 | !1!G,4 z4 | !2!F,4 !5!C,4 | !1!G,4 z4 | z8 | z8 | z8 | z8 | z8 | z8 | %12
 z8 | z8 | z8 | z8 | z8 | z8 | z8 | z8 | z8 | z8 | F,4 z4 | G,4 z4 | F,4 z4 | G,4 z4 | F,4 z4 | %27
 G,4 z4 | z8 | z8 | F,4 z4 | G,4 z4 | F,4 z4 | G,4 z4 | F,4 z4 | G,4 z4 | z8 | z8 | F,4 C,4 | %39
 G,4 z4 | F,4 C,4 | G,4 z4 |] %42

